packages/foundations/assets/icons/functional/images/transportation/taxi_28.svg

<svg width="28" height="28" viewBox="0 0 28 28" fill="none" xmlns="http://www.w3.org/2000/svg">
<g clip-path="url(#clip0_187_945)">
<path fill-rule="evenodd" clip-rule="evenodd" d="M19.6404 5.25009C20.7926 5.25009 21.8033 6.00013 22.1447 7.08803L23.4395 12.2491L25.3968 12.25C25.8453 12.25 26.1904 12.5616 26.2375 12.9935L26.2429 13.9703C26.2429 14.4187 25.9298 14.8144 25.4984 14.8687L24.4884 14.8741C24.5093 15.0797 24.4899 15.5907 24.4301 16.4073L24.1295 19.5338C24.0766 20.0574 23.9107 20.5305 23.6318 20.953V23.3784C23.6318 23.8661 23.6318 25.3108 21.8092 25.3723L20.3785 25.3751C18.4866 25.3751 18.3976 23.9395 18.3845 23.5525L18.3804 22.145C17.9742 22.1708 16.1928 22.3107 14.0061 22.3111C11.8195 22.3115 10.2527 22.1858 9.63284 22.1467L9.63176 23.3784C9.63176 23.8661 9.63176 25.3108 7.80922 25.3723L6.37846 25.3751C4.50784 25.3751 4.39757 23.9395 4.38451 23.5525L4.38176 21.0001C4.12256 20.6446 3.95234 20.208 3.88013 19.7056L3.56132 16.4335C3.49295 15.6862 3.47097 15.1663 3.49538 14.8739L2.60314 14.875C2.11927 14.875 1.75702 14.4532 1.75702 13.9703V13.0953C1.75702 12.6114 2.11927 12.25 2.60314 12.25H4.57277L5.82649 7.23843C6.10593 6.12068 7.1088 5.25009 8.37312 5.25009H19.6404ZM6.13202 21.8785L6.13176 23.6251H7.88176L7.88114 22.0238L6.13202 21.8785ZM21.8811 21.8768L20.1311 22.022L20.1379 23.6251H21.8818L21.8811 21.8768ZM6.63094 14C5.76807 14 5.46496 14.1677 5.34158 14.5062C5.25061 14.7761 5.22417 15.1907 5.26227 15.75H7.00676C7.49001 15.75 7.88176 16.1418 7.88176 16.625C7.88176 17.0737 7.55373 17.5 7.00676 17.5H5.42152L5.60138 19.3652C5.6477 19.844 5.79072 20.0535 6.06328 20.1185C8.75872 20.4131 11.4043 20.5606 14 20.5612C16.5957 20.5617 19.2318 20.4134 21.9083 20.1164C22.1739 20.048 22.315 19.8709 22.3727 19.4881L22.5671 17.5H21.0068C20.5235 17.5 20.1318 17.1082 20.1318 16.625C20.1318 16.1763 20.4893 15.75 21.0267 15.75H22.7246C22.7487 15.1479 22.7213 14.7382 22.6422 14.521C22.5236 14.1952 22.2503 14.0237 21.5214 14.0023L6.63094 14ZM17.5068 16.625C17.99 16.625 18.3818 17.0168 18.3818 17.5C18.3818 17.9487 18.0228 18.375 17.5068 18.375H10.5068C10.0235 18.375 9.63176 17.9832 9.63176 17.5C9.63176 17.0513 10.0027 16.6192 10.5068 16.6251L17.5068 16.625ZM8.37312 7.00009C8.00507 7.00009 7.68031 7.2297 7.55373 7.568L6.37702 12.25L21.6353 12.2491L20.4893 7.66287C20.4 7.30581 20.0985 7.04644 19.7396 7.00569L8.37312 7.00009ZM16.6181 2.625C17.1014 2.625 17.4931 3.01675 17.4931 3.5C17.4931 3.94873 17.1324 4.375 16.6181 4.375H11.3681C10.8849 4.375 10.4931 3.98325 10.4931 3.5C10.4931 3.05127 10.8784 2.625 11.3681 2.625H16.6181Z" fill="#1A1C1F"/>
</g>
<defs>
<clipPath id="clip0_187_945">
<rect width="28" height="28" fill="white"/>
</clipPath>
</defs>
</svg>

<svg xmlns="http://www.w3.org/2000/svg" width="28" height="28" fill="none"><g clip-path="url(#a)"><path fill="#1A1C1F" fill-rule="evenodd" d="M19.64 5.25c1.153 0 2.163.75 2.505 1.838l1.294 5.161 1.958.001c.448 0 .793.312.84.743l.006.977c0 .449-.313.844-.745.899l-1.01.005q.032.309-.058 1.533l-.3 3.127a3.1 3.1 0 0 1-.498 1.419v2.425c0 .488 0 1.933-1.823 1.994l-1.43.003c-1.892 0-1.981-1.436-1.995-1.823l-.004-1.407c-.406.026-2.187.166-4.374.166s-3.753-.125-4.373-.164l-.001 1.231c0 .488 0 1.933-1.823 1.994l-1.43.003c-1.871 0-1.981-1.436-1.994-1.823L4.382 21a2.86 2.86 0 0 1-.502-1.294l-.319-3.273q-.102-1.12-.066-1.56l-.892.002c-.484 0-.846-.422-.846-.905v-.875c0-.484.362-.845.846-.845h1.97l1.253-5.012A2.62 2.62 0 0 1 8.373 5.25zM6.132 21.88v1.746h1.75v-1.601zm15.75-.002-1.75.145.006 1.603h1.744zM6.63 14c-.863 0-1.166.168-1.29.506q-.135.405-.079 1.244h1.745c.483 0 .875.392.875.875 0 .449-.328.875-.875.875H5.422l.18 1.865c.046.479.189.689.461.754q4.044.441 7.937.442 3.894 0 7.908-.445c.266-.068.407-.245.465-.628l.194-1.988h-1.56a.875.875 0 1 1 .02-1.75h1.698q.036-.903-.083-1.229c-.118-.326-.392-.497-1.12-.519zm10.876 2.625a.875.875 0 0 1 0 1.75h-7a.875.875 0 1 1 0-1.75zM8.373 7a.875.875 0 0 0-.82.568L6.378 12.25h15.258L20.49 7.662a.875.875 0 0 0-.75-.657zm8.245-4.375a.875.875 0 1 1 0 1.75h-5.25a.875.875 0 0 1-.875-.875c0-.449.385-.875.875-.875z" clip-rule="evenodd"/></g><defs><clipPath id="a"><path fill="#fff" d="M0 0h28v28H0z"/></clipPath></defs></svg>
